src/assets-svg/transactionicon.svg

<svg width="24" height="20" viewBox="0 0 24 20" fill="none" xmlns="http://www.w3.org/2000/svg">
<path d="M19.8807 0H9.41719C8.58466 0 7.78622 0.316071 7.19754 0.87868C6.60885 1.44129 6.27812 2.20435 6.27812 3V10C6.27812 10.7956 6.60885 11.5587 7.19754 12.1213C7.78622 12.6839 8.58466 13 9.41719 13H19.8807C20.7133 13 21.5117 12.6839 22.1004 12.1213C22.6891 11.5587 23.0198 10.7956 23.0198 10V3C23.0198 2.20435 22.6891 1.44129 22.1004 0.87868C21.5117 0.316071 20.7133 0 19.8807 0ZM20.9271 10C20.9271 10.2652 20.8168 10.5196 20.6206 10.7071C20.4244 10.8946 20.1582 11 19.8807 11H9.41719C9.13968 11 8.87353 10.8946 8.6773 10.7071C8.48107 10.5196 8.37083 10.2652 8.37083 10V3C8.37083 2.73478 8.48107 2.48043 8.6773 2.29289C8.87353 2.10536 9.13968 2 9.41719 2H19.8807C20.1582 2 20.4244 2.10536 20.6206 2.29289C20.8168 2.48043 20.9271 2.73478 20.9271 3V10ZM17.2648 6C16.8775 6.00125 16.5045 6.14028 16.2185 6.39C15.9935 6.19455 15.7139 6.06577 15.4138 6.0193C15.1136 5.97284 14.8058 6.01069 14.5278 6.12826C14.2497 6.24582 14.0134 6.43805 13.8475 6.68157C13.6816 6.92509 13.5933 7.20942 13.5933 7.5C13.5933 7.79058 13.6816 8.07491 13.8475 8.31843C14.0134 8.56195 14.2497 8.75418 14.5278 8.87174C14.8058 8.98931 15.1136 9.02716 15.4138 8.9807C15.7139 8.93423 15.9935 8.80545 16.2185 8.61C16.4074 8.77413 16.6354 8.89172 16.8827 8.95258C17.13 9.01344 17.3891 9.01572 17.6375 8.95923C17.8859 8.90274 18.1161 8.78919 18.3082 8.62842C18.5003 8.46765 18.6484 8.26452 18.7398 8.03664C18.8311 7.80877 18.8629 7.56304 18.8324 7.32076C18.8019 7.07848 18.71 6.84697 18.5647 6.64632C18.4194 6.44567 18.2251 6.28192 17.9985 6.1693C17.772 6.05667 17.5202 5.99856 17.2648 6ZM15.6953 15C15.4178 15 15.1517 15.1054 14.9554 15.2929C14.7592 15.4804 14.649 15.7348 14.649 16V17C14.649 17.2652 14.5387 17.5196 14.3425 17.7071C14.1463 17.8946 13.8801 18 13.6026 18H3.13906C2.86155 18 2.59541 17.8946 2.39918 17.7071C2.20295 17.5196 2.09271 17.2652 2.09271 17V13H3.13906C3.41657 13 3.68272 12.8946 3.87895 12.7071C4.07518 12.5196 4.18542 12.2652 4.18542 12C4.18542 11.7348 4.07518 11.4804 3.87895 11.2929C3.68272 11.1054 3.41657 11 3.13906 11H2.09271V10C2.09271 9.73478 2.20295 9.48043 2.39918 9.29289C2.59541 9.10536 2.86155 9 3.13906 9C3.41657 9 3.68272 8.89464 3.87895 8.70711C4.07518 8.51957 4.18542 8.26522 4.18542 8C4.18542 7.73478 4.07518 7.48043 3.87895 7.29289C3.68272 7.10536 3.41657 7 3.13906 7C2.30653 7 1.5081 7.31607 0.91941 7.87868C0.330722 8.44129 0 9.20435 0 10V17C0 17.7956 0.330722 18.5587 0.91941 19.1213C1.5081 19.6839 2.30653 20 3.13906 20H13.6026C14.4351 20 15.2336 19.6839 15.8223 19.1213C16.4109 18.5587 16.7417 17.7956 16.7417 17V16C16.7417 15.7348 16.6314 15.4804 16.4352 15.2929C16.239 15.1054 15.9728 15 15.6953 15ZM5.23177 16H6.27812C6.55564 16 6.82178 15.8946 7.01801 15.7071C7.21424 15.5196 7.32448 15.2652 7.32448 15C7.32448 14.7348 7.21424 14.4804 7.01801 14.2929C6.82178 14.1054 6.55564 14 6.27812 14H5.23177C4.95426 14 4.68812 14.1054 4.49189 14.2929C4.29566 14.4804 4.18542 14.7348 4.18542 15C4.18542 15.2652 4.29566 15.5196 4.49189 15.7071C4.68812 15.8946 4.95426 16 5.23177 16Z" fill="#F5FAFF"/>
</svg>

<svg width="24" height="20" fill="none" xmlns="http://www.w3.org/2000/svg"><path d="M19.88 0H9.418c-.832 0-1.63.316-2.22.879A2.934 2.934 0 0 0 6.279 3v7c0 .796.33 1.559.92 2.121a3.214 3.214 0 0 0 2.22.879H19.88c.832 0 1.63-.316 2.22-.879.588-.562.919-1.325.919-2.121V3c0-.796-.33-1.559-.92-2.121A3.214 3.214 0 0 0 19.88 0Zm1.047 10c0 .265-.11.52-.306.707a1.072 1.072 0 0 1-.74.293H9.417c-.277 0-.543-.105-.74-.293A.978.978 0 0 1 8.371 10V3c0-.265.11-.52.306-.707.197-.188.463-.293.74-.293h10.464c.277 0 .543.105.74.293a.978.978 0 0 1 .306.707v7Zm-3.662-4a1.6 1.6 0 0 0-1.047.39 1.6 1.6 0 0 0-.804-.37 1.636 1.636 0 0 0-.886.108c-.278.118-.515.31-.68.554a1.452 1.452 0 0 0-.255.818c0 .29.089.575.255.818.165.244.402.436.68.554.278.117.586.155.886.109a1.6 1.6 0 0 0 .804-.371c.19.164.417.282.665.343.247.06.506.063.755.006.248-.056.478-.17.67-.33.192-.161.34-.364.432-.592a1.44 1.44 0 0 0-.175-1.39c-.146-.201-.34-.365-.567-.478A1.628 1.628 0 0 0 17.265 6Zm-1.57 9c-.277 0-.543.105-.74.293a.978.978 0 0 0-.306.707v1c0 .265-.11.52-.306.707a1.072 1.072 0 0 1-.74.293H3.139c-.277 0-.544-.105-.74-.293A.978.978 0 0 1 2.093 17v-4h1.046c.278 0 .544-.105.74-.293A.978.978 0 0 0 4.185 12c0-.265-.11-.52-.306-.707a1.072 1.072 0 0 0-.74-.293H2.093v-1c0-.265.11-.52.306-.707.196-.188.463-.293.74-.293.278 0 .544-.105.74-.293A.978.978 0 0 0 4.185 8c0-.265-.11-.52-.306-.707A1.072 1.072 0 0 0 3.139 7c-.832 0-1.63.316-2.22.879A2.934 2.934 0 0 0 0 10v7c0 .796.33 1.559.92 2.121A3.214 3.214 0 0 0 3.14 20h10.463c.832 0 1.63-.316 2.22-.879.588-.562.919-1.325.919-2.121v-1c0-.265-.11-.52-.307-.707a1.072 1.072 0 0 0-.74-.293ZM5.232 16h1.046c.278 0 .544-.105.74-.293A.978.978 0 0 0 7.324 15c0-.265-.11-.52-.306-.707a1.072 1.072 0 0 0-.74-.293H5.232c-.278 0-.544.105-.74.293a.978.978 0 0 0-.307.707c0 .265.11.52.307.707.196.188.462.293.74.293Z" fill="#F5FAFF"/></svg>
